X:202
T:Lord McDonald
Z: id:dc-reel-185
M:C
L:1/8
K:G Major
DGBG DGBG|c2Bc AGEG|DGGF G3E|DEDC B,G,G,2|!
DGBG DGBG|c2Bc AGEG|B3A G3E|DEGA BGG2|]!
Bdd^c dBAd|Bdef aged|Bdd^c d3B|A2GA BGG2|!
Bdd^c dBAd|Bdef aged|Bdef gfge|dBAc BGG2|]!
dgbg agbg|dgbg ageg|dgbg agbg|dedc BGG2|!
dgbg agbg|dgbg ageg|bggf gage|dega bgg2|]!
Bdd^c dBAd|Bdef aged|Bdd^c d3B|A2GA BGG2|!
Bdd^c dBAd|Bdef aged|Bdef gfge|dBAc BGG2|]!

